X:89
T:The Seven Stars
M:6/8
L:1/8
K:D
"D"d2A A2F | "Em"GAB "D"A2A | "G"Bcd "Em"efg | "A"fed cBA | 
"D"d2A A2F | "Em"GAB "D"A2A | "G"Bcd "Em"efg | "A"Adc "D"d3 ::
"A"e2A A2f | "A"efg "D"f3 | "A"efg "D"fed | "A"cde A2A | 
"G"BGB "D"AFA | "G"BGB "D"AFA | "G"Bcd "Em"efg | "A"Adc "D"d3 :|]

%%newpage

